X:575
T:Black Molly
O:england
M:3/4
L:1/8
Q:180
C:Words and music by Catherine Faber, (c) 1991
S:From "A Breeze Through the CONduit"
B:A Breeze Through the CONduit, (c) 1992 by Julia West
D:on the tape, "A Breeze Through the CONduit"
W:Now Molly was brown as a berry,
W:Her hair like the shadow at noon,
W:And her merry brown eyes could flash a surprise,
W:So the young men all danced to her tune.
W:But Molly is gone from the water,
W:No more with the lads for to talk;
W:She was drowned, she was drowned,
W:And she never was found,
W:Where the black water slaps at the rock.
K:G
B,2|E E3 E2|E4 F G|F E-E4-|E2 z2 B,2| E4 E E| E F3 G2| A6-|A2 z2 G A|
B A3 G2|A4 F2|G2 F E3|F4 F F |G2 G G3| F2 E D3|E6-|E2 z2 B,|E E3 E2|
E4 F G|F E-E4-|E2 z2 B,2|E4 E E|E2 F2 G2|A6|z4 G A|B4 A G| F4 F F|
E D3 C|B,4 A, A,|B,4 B, B,|E4 G G|E6||


